X:295
T:Come Ashore Jolly Tar. RH.295
R:.hornpipe
S:Rev.R.Harrison’s MS,c1815,Cumbria
O:England
A:Temple Sowerby,Cumbria
Z:vmp.Simon Wilson. Review PJH, 2008.
M:C
L:1/8
Q:2/4=80
K:G
BA|GFGE g2fe|dBGB c2BA|GFGE DEFG|d2A2 A2BA|!
GFGE g2fe|dBGB c2BA|G2FG DEFA|G2E2 E2:|!
|:Bd|e3f efge|d2B2 B2AB|d^cde defe|d2A2 A2Bd|!
edef g2fe|dBGB c2BA|GFGE DEFA|G2E2 E2:|!
|:GA|BGEG BGEG|BAGF E2FG|AFDF AFDF|AGFE D2EF|!
GFGE Egfe|dBGB AcBA|GFGE DEFA|G2E2 E2:|!
|:Bd|edef efge|d2B2 BAB^c|dcde defe|d2A2 A2Bd|!
edef egfe|dBGB AcBA|GFGE DEFA|G2E2 E2:|

